!!!!SEGMENT: pl-sa--481-a-viii-121--026_anonim--krakowiak.krn
!!!cenid: 18xx:397
!!!COM: Anonim
!!!COM-rismID: pe30004985
!!!CDT:
!!!CNT:
!!!OTL: Krakowiak
!!!PDT:
!!!AGN: Secular
!!!SMS-siglum: PL-SA
!!!SMS-shelfmark: 481/A VIII 121
!!!SMS-shelfwork: 026 W
!!!SMS-variant:
!!!SMS-altvar:
!!!NIFC-rismSourceID: 1001070691
!!!NIFC-islandoraID:
!!!URL-pdf-islandora:
!!!URL-scan: https://bc.bdsandomierz.pl/dlibra/publication/1212/edition/1171/content @EN{Scan on Cyfrowa Biblioteka Diecezjalna w Sandomierzu} @PL{Skany w portalu Cyfrowa Biblioteka Diecezjalna w Sandomierzu}
!!!ONB-nifc: Str. 20, s. 4-5
!!!AIN: 2 piano
!!!key:
**kern	**kern
*part2	*part1
*staff2	*staff1
*Ipiano	*Ipiano
*I"Piano	*I"Piano
*group1	*group1
*clefF4	*clefG2
*k[b-]	*k[b-]
*F:	*F:
*M2/4	*M2/4
*>[A,A,B,B]	*>[A,A,B,B]
=1	=1
*>A	*>A
!	!LO:TX:a:t=Krako&colon;
8F\L 8A	8a\L
8c\J	8cc\
*rep	*
8F\L 8A	8ff\
8c\J	8ee\J
*Xrep	*
=2	=2
8F\L 8B-	8ee\L
8d\J	8dd\J
*rep	*
8F\L 8B-	8r
8d\J	8dd\
*Xrep	*
=3	=3
8E\L 8G 8d	8bb-\L
8c\J	8gg\
*rep	*
8E\L 8G 8d	8ee\
8c\J	8cc\J
*Xrep	*
=4	=4
8F\L 8A	8ff\L
8c\J	8aa\J
*rep	*
!	!LO:TX:a:t=P:problem=pauza zapisana jako fala
8F\L 8A	4r
8c\J	.
*Xrep	*
=5	=5
*rep	*
8F\L 8A	8a\L
8c\J	8cc\
*Xrep	*
*rep	*
8F\L 8A	8ff\
8c\J	8ee\J
*Xrep	*
=6	=6
8F\L 8B-	8ee\L
8d\J	8dd\J
*rep	*
8F\L 8B-	8r
8d\J	8dd\
*Xrep	*
=7	=7
8E\L 8G 8B-	8bb-\L
8c\J	8gg\
*rep	*
8E\L 8G 8B-	8bb-\
8c\J	8ee\J
*Xrep	*
=8	=8
8F\L 8A	8gg\L
8c\J	8ff\J
*rep	*
8F\L 8A	8r
8c\J	8ff\
*Xrep	*
=9:|!|:	=9:|!|:
*>B	*>B
8C\L 8B-	8ee\L
8c\J	8gg\
*rep	*
8C\L 8B-	8.ccc\
8c\J	.
.	16bb-\Jk
*Xrep	*
=10	=10
8F\L 8A	8bb-\L
8c\J	8aa\J
*rep	*
8F\L 8A	8r
!	!LO:SIC:s=8gg:v
!	!LO:TX:a:t=P:problem=rozmazana główka nuty
8c\J	8ff\
*Xrep	*
=11	=11
8C\L 8B-	8ee\L
8c\J	8gg\
*rep	*
8C\L 8B-	8.ccc\
8c\J	.
.	16bb-\Jk
*Xrep	*
!LO:LB:g=original	!LO:LB:g=original
=12	=12
8F\L 8A	8bb-\L
8c\J	8aa\J
*rep	*
!	!LO:TX:a:t=P:problem=pauza zapisana jako fala
8F\L 8A	4r
8c\J	.
*Xrep	*
=13	=13
*rep	*
8F\L 8A	8a\L
8c\J	8cc\
*Xrep	*
*rep	*
8F\L 8A	8ff\
8c\J	8ee\J
*Xrep	*
=14	=14
8F\L 8B-	8ee\L
8d\J	8dd\J
*rep	*
8F\L 8B-	8r
8d\J	8dd\
*Xrep	*
=15	=15
8E\L 8G 8B-	8bb-\L
8c\J	8gg\
*rep	*
8E\L 8G 8B-	8bb-\
8c\J	8ee\J
*Xrep	*
=16	=16
8F\L 8A	8gg\L
8c\J	8ff\J
*rep	*
8F\L 8A	8r
!LO:TX:a:t=P:problem=niejednoznaczny zapis kreski taktowej	!LO:TX:a:t=P:problem=niejednoznaczny zapis kreski taktowej
8c\J	8ff\
*Xrep	*
=:|!	=:|!
*-	*-
!!!system-decoration: [(g1)]
!!!ENC: Anna Matuszewska
!!!END: 2020-11-21
!!!ENC: Andrzej Kubiczek
!!!END: 2020-06-15
